X: 43324
T: Woofin' The Cat
R: reel
M: 4/4
K: Emajor
|:E2 GB e2 eB|ceBG F2 E2|E2 GB e2 ef|gfge c2 Bc|
E2 GB e2 eB|ceBG F2 ef|gfge c2 ef|g/a/b ge f2 e2:|
|:a3 f g3 e|f2 ef gfec|B/B/B bg a2 gf|eBeg f2 fg|
aeca- aeca|geBg- gfef|gfge c2ef|g/a/b ge f2 e2:|

